src/actions/16/document-decrypt.svg

<svg width="16" height="16" version="1.1" xmlns="http://www.w3.org/2000/svg">
 <defs>
  <style id="current-color-scheme" type="text/css">.ColorScheme-Text { color:#363636; }</style>
 </defs>
 <path d="m12 0c-2.216 0-4 1.784-4 4v2h1v-2c0-1.662 1.338-3 3-3s3 1.338 3 3v2h1v-2c0-2.216-1.784-4-4-4z" style="fill:currentColor" class="ColorScheme-Text"/>
 <path d="m2 6c-1.108 0-2 0.892-2 2v5c0 1.108 0.892 2 2 2h8c1.108 0 2-0.892 2-2v-5c0-1.108-0.892-2-2-2h-8zm0 1h8c0.554 0 1 0.446 1 1v5c0 0.554-0.446 1-1 1h-8c-0.554 0-1-0.446-1-1v-5c0-0.554 0.446-1 1-1z" style="fill:currentColor" class="ColorScheme-Text"/>
</svg>

<svg xmlns="http://www.w3.org/2000/svg" width="16" height="16">
    <defs>
        <style id="current-color-scheme" type="text/css">
            .ColorScheme-Text{color:#050505;opacity:.7}
        </style>
    </defs>
    <path d="M12 0C9.784 0 8 1.784 8 4v2h1V4c0-1.662 1.338-3 3-3s3 1.338 3 3v2h1V4c0-2.216-1.784-4-4-4zM2 6C.892 6 0 6.892 0 8v5c0 1.108.892 2 2 2h8c1.108 0 2-.892 2-2V8c0-1.108-.892-2-2-2H2zm0 1h8c.554 0 1 .446 1 1v5c0 .554-.446 1-1 1H2c-.554 0-1-.446-1-1V8c0-.554.446-1 1-1z" class="ColorScheme-Text" style="fill:currentColor"/>
</svg>
